svg/fluentui-system-icons/ic_fluent_person_available_16_filled.svg

<svg width="16" height="16" viewBox="0 0 16 16" fill="none" xmlns="http://www.w3.org/2000/svg">
<path d="M8.88873 5.23978C7.85048 5.55742 6.94282 6.17402 6.2661 6.9892C4.99506 6.87127 4 5.80184 4 4.5C4 3.11929 5.11929 2 6.5 2C7.88071 2 9 3.11929 9 4.5C9 4.75755 8.96106 5.006 8.88873 5.23978ZM3.5 8H5.59971C5.21628 8.75007 5 9.59978 5 10.5C5 11.8087 5.45709 13.0107 6.22034 13.9549C3.55412 13.64 2 11.7302 2 10V9.75C2 8.95471 2.67157 8 3.5 8ZM15 10.5C15 12.9853 12.9853 15 10.5 15C8.01472 15 6 12.9853 6 10.5C6 8.01472 8.01472 6 10.5 6C12.9853 6 15 8.01472 15 10.5ZM12.8536 8.64645C12.6583 8.45118 12.3417 8.45118 12.1464 8.64645L9.5 11.2929L8.85355 10.6464C8.65829 10.4512 8.34171 10.4512 8.14645 10.6464C7.95118 10.8417 7.95118 11.1583 8.14645 11.3536L9.14645 12.3536C9.34171 12.5488 9.65829 12.5488 9.85355 12.3536L12.8536 9.35355C13.0488 9.15829 13.0488 8.84171 12.8536 8.64645Z" fill="#212121"/>
</svg>

<svg xmlns="http://www.w3.org/2000/svg" width="16" height="16"><path d="M8.889 5.24a5.506 5.506 0 0 0-2.623 1.75A2.5 2.5 0 1 1 8.89 5.24ZM3.5 8h2.1c-.384.75-.6 1.6-.6 2.5a5.48 5.48 0 0 0 1.22 3.455C3.554 13.64 2 11.73 2 10v-.25C2 8.955 2.672 8 3.5 8ZM15 10.5a4.5 4.5 0 1 1-9 0 4.5 4.5 0 0 1 9 0Zm-2.146-1.854a.5.5 0 0 0-.708 0L9.5 11.293l-.646-.647a.5.5 0 0 0-.708.708l1 1a.5.5 0 0 0 .708 0l3-3a.5.5 0 0 0 0-.708Z"/></svg>
